icons/dotnetcore/dotnetcore-original.svg

<?xml version="1.0" encoding="UTF-8"?>
<svg xmlns="http://www.w3.org/2000/svg" xmlns:xlink="http://www.w3.org/1999/xlink" width="128px" height="128px" viewBox="0 0 128 128" version="1.1">
<g>
<path fill="#623697" d="M 61.195312 0 L 66.148438 0 C 79.066406 0.535156 91.835938 4.890625 102.191406 12.675781 C 112 19.964844 119.664062 30.113281 123.917969 41.582031 C 126.359375 47.96875 127.582031 54.761719 128 61.574219 L 128 65.785156 C 127.585938 77.078125 124.335938 88.304688 118.269531 97.867188 C 111.46875 108.761719 101.347656 117.597656 89.542969 122.695312 C 81.839844 126.039062 73.480469 127.855469 65.082031 128 L 62.9375 128 C 51.203125 127.808594 39.527344 124.339844 29.640625 118.007812 C 18.445312 110.894531 9.527344 100.222656 4.613281 87.890625 C 1.890625 81.191406 0.441406 74.019531 0 66.8125 L 0 61.855469 C 0.503906 47.464844 5.953125 33.246094 15.410156 22.359375 C 23.167969 13.308594 33.5 6.480469 44.886719 2.9375 C 50.171875 1.269531 55.675781 0.410156 61.195312 0 M 25.191406 37.523438 C 25.160156 49.675781 25.179688 61.828125 25.179688 73.976562 C 26.609375 73.988281 28.039062 73.988281 29.472656 73.988281 C 29.398438 63.554688 29.574219 53.125 29.367188 42.695312 C 29.847656 43.601562 30.285156 44.535156 30.832031 45.402344 C 37.035156 54.910156 43.105469 64.5 49.308594 74 C 51.046875 73.976562 52.785156 73.976562 54.523438 74.003906 C 54.519531 61.84375 54.515625 49.683594 54.527344 37.523438 C 53.113281 37.507812 51.695312 37.507812 50.277344 37.511719 C 50.351562 47.832031 50.140625 58.152344 50.402344 68.460938 C 43.894531 58.109375 37.300781 47.816406 30.707031 37.515625 C 28.871094 37.507812 27.027344 37.503906 25.191406 37.523438 M 64.035156 37.511719 C 63.90625 49.671875 64.03125 61.832031 63.988281 73.988281 C 70.457031 73.972656 76.925781 74.011719 83.398438 73.96875 C 83.378906 72.652344 83.378906 71.332031 83.421875 70.015625 C 78.410156 70 73.394531 70.023438 68.378906 69.996094 C 68.304688 65.785156 68.375 61.570312 68.339844 57.359375 C 72.734375 57.28125 77.128906 57.371094 81.519531 57.3125 C 81.507812 56.035156 81.507812 54.757812 81.5 53.480469 C 77.113281 53.621094 72.726562 53.425781 68.335938 53.492188 C 68.347656 49.46875 68.355469 45.441406 68.355469 41.414062 C 73.054688 41.414062 77.753906 41.394531 82.449219 41.425781 C 82.441406 40.125 82.449219 38.820312 82.464844 37.519531 C 76.320312 37.503906 70.175781 37.511719 64.035156 37.511719 M 86.636719 37.566406 C 86.640625 38.832031 86.640625 40.09375 86.644531 41.355469 C 90.132812 41.316406 93.617188 41.464844 97.105469 41.390625 C 97.082031 52.253906 97.109375 63.109375 97.09375 73.964844 C 98.554688 74.007812 100.023438 74 101.484375 73.875 C 101.363281 67.882812 101.601562 61.886719 101.328125 55.898438 C 101.394531 53.199219 101.257812 50.503906 101.445312 47.808594 C 101.550781 45.667969 101.167969 43.53125 101.410156 41.390625 C 104.925781 41.4375 108.445312 41.40625 111.960938 41.40625 C 111.949219 40.132812 111.964844 38.851562 112.035156 37.574219 C 103.566406 37.46875 95.097656 37.480469 86.636719 37.566406 M 13.550781 69.09375 C 11.574219 70.003906 11.445312 73.117188 13.402344 74.121094 C 15.121094 75.300781 17.707031 73.75 17.628906 71.710938 C 17.761719 69.707031 15.339844 68.023438 13.550781 69.09375 M 42.78125 84.382812 C 38.503906 87.851562 38.554688 95.578125 43.28125 98.632812 C 45.949219 100.328125 49.382812 99.976562 52.203125 98.847656 C 52.214844 98.226562 52.230469 97.609375 52.253906 96.988281 C 49.582031 98.382812 45.84375 98.667969 43.578125 96.378906 C 40.613281 93.140625 41.28125 87.109375 45.191406 84.902344 C 47.402344 83.738281 50.097656 84.078125 52.277344 85.140625 C 52.269531 84.480469 52.273438 83.820312 52.277344 83.160156 C 49.179688 82.0625 45.355469 82.121094 42.78125 84.382812 M 59.988281 87.09375 C 58.097656 87.3125 56.230469 88.3125 55.355469 90.058594 C 54.101562 92.554688 54.246094 95.925781 56.21875 98.019531 C 58.253906 100.316406 62.164062 100.339844 64.398438 98.316406 C 66.824219 96.007812 67.097656 91.847656 65.15625 89.152344 C 64.007812 87.523438 61.882812 86.96875 59.988281 87.09375 M 77.875 89.816406 C 76.214844 92.699219 76.542969 97.066406 79.472656 99.027344 C 81.65625 100.246094 84.40625 99.859375 86.546875 98.71875 C 86.542969 98.101562 86.550781 97.484375 86.578125 96.871094 C 84.890625 97.941406 82.640625 98.726562 80.765625 97.648438 C 79.457031 96.925781 79.0625 95.390625 78.851562 94.023438 C 81.726562 93.984375 84.597656 93.941406 87.476562 93.949219 C 87.402344 92.121094 87.359375 90.054688 86.027344 88.640625 C 83.828125 86.210938 79.382812 86.984375 77.875 89.816406 M 69.460938 87.480469 C 69.460938 91.484375 69.460938 95.488281 69.460938 99.488281 C 70.113281 99.488281 70.773438 99.488281 71.433594 99.492188 C 71.457031 97.296875 71.394531 95.097656 71.457031 92.898438 C 71.472656 91.628906 71.984375 90.339844 72.941406 89.484375 C 73.742188 88.878906 74.824219 89.214844 75.742188 89.238281 C 75.730469 88.601562 75.722656 87.96875 75.71875 87.335938 C 73.925781 86.9375 72.382812 87.988281 71.476562 89.453125 C 71.457031 88.820312 71.4375 88.1875 71.425781 87.558594 C 70.769531 87.535156 70.113281 87.507812 69.460938 87.480469 Z M 69.460938 87.480469 "/>
<path fill="#623697" d="M 58.757812 89.222656 C 60.410156 88.417969 62.78125 88.8125 63.703125 90.523438 C 64.753906 92.410156 64.730469 94.90625 63.566406 96.734375 C 62.046875 99.019531 58.039062 98.519531 57.042969 95.992188 C 56.035156 93.734375 56.425781 90.507812 58.757812 89.222656 Z M 58.757812 89.222656 "/>
<path fill="#623697" d="M 79.039062 92.414062 C 79.085938 90.839844 80.183594 89.277344 81.765625 88.933594 C 82.742188 88.769531 83.863281 88.941406 84.539062 89.726562 C 85.210938 90.441406 85.351562 91.441406 85.519531 92.367188 C 83.359375 92.378906 81.199219 92.335938 79.039062 92.414062 Z M 79.039062 92.414062 "/>
</g>
</svg>

<svg xmlns="http://www.w3.org/2000/svg" viewBox="0 0 128 128"><g fill="#623697"><path d="M61.195 0h4.953c12.918.535 25.688 4.89 36.043 12.676 9.809 7.289 17.473 17.437 21.727 28.906 2.441 6.387 3.664 13.18 4.082 19.992v4.211c-.414 11.293-3.664 22.52-9.73 32.082-6.801 10.895-16.922 19.73-28.727 24.828A64.399 64.399 0 0165.082 128h-2.144c-11.735-.191-23.41-3.66-33.297-9.992-11.196-7.113-20.114-17.785-25.028-30.117C1.891 81.19.441 74.02 0 66.812v-4.957c.504-14.39 5.953-28.609 15.41-39.496C23.168 13.31 33.5 6.48 44.887 2.937 50.172 1.27 55.676.41 61.195 0M25.191 37.523c-.03 12.153-.011 24.305-.011 36.454 1.43.011 2.86.011 4.293.011-.075-10.433.101-20.863-.106-31.293.48.907.918 1.84 1.465 2.707C37.035 54.91 43.105 64.5 49.309 74c1.738-.023 3.476-.023 5.214.004-.003-12.16-.007-24.32.004-36.48a308.076 308.076 0 00-4.25-.012c.075 10.32-.136 20.64.125 30.949-6.507-10.352-13.101-20.645-19.695-30.945a370.85 370.85 0 00-5.516.007m38.844-.011c-.129 12.16-.004 24.32-.047 36.476 6.469-.015 12.938.024 19.41-.02a83.36 83.36 0 01.024-3.952c-5.012-.016-10.027.007-15.043-.02-.074-4.21-.004-8.426-.04-12.637 4.395-.078 8.79.012 13.18-.047-.011-1.277-.011-2.554-.019-3.832-4.387.141-8.773-.054-13.164.012.012-4.023.02-8.05.02-12.078 4.699 0 9.398-.02 14.093.012-.008-1.301 0-2.606.016-3.906-6.145-.016-12.29-.008-18.43-.008m22.602.054c.004 1.266.004 2.528.008 3.79 3.488-.04 6.972.109 10.46.035-.023 10.863.004 21.718-.011 32.574 1.46.043 2.93.035 4.39-.09-.12-5.992.118-11.988-.156-17.977.067-2.699-.07-5.394.117-8.09.106-2.14-.277-4.277-.035-6.417 3.516.047 7.035.015 10.55.015a59.774 59.774 0 01.075-3.832c-8.469-.105-16.937-.094-25.398-.008M13.55 69.094c-1.977.91-2.106 4.023-.149 5.027 1.72 1.18 4.305-.371 4.227-2.41.133-2.004-2.29-3.688-4.078-2.617m29.23 15.289c-4.277 3.469-4.226 11.195.5 14.25 2.668 1.695 6.102 1.344 8.922.215.012-.621.027-1.239.05-1.86-2.671 1.395-6.41 1.68-8.675-.61-2.965-3.237-2.297-9.269 1.613-11.476 2.211-1.164 4.907-.824 7.086.239-.007-.66-.004-1.32 0-1.98-3.097-1.099-6.922-1.04-9.496 1.222m17.207 2.71c-1.89.22-3.758 1.22-4.633 2.966-1.253 2.496-1.109 5.867.864 7.96 2.035 2.297 5.945 2.32 8.18.297 2.425-2.308 2.699-6.468.757-9.164-1.148-1.629-3.273-2.183-5.168-2.058m17.887 2.722c-1.66 2.883-1.332 7.25 1.598 9.211 2.183 1.22 4.933.832 7.074-.308-.004-.617.004-1.235.031-1.848-1.687 1.07-3.937 1.856-5.812.777-1.309-.722-1.704-2.257-1.914-3.625 2.875-.039 5.746-.082 8.625-.074-.075-1.828-.118-3.894-1.45-5.308-2.199-2.43-6.644-1.657-8.152 1.175m-8.414-2.336v12.008c.652 0 1.312 0 1.973.004.023-2.195-.04-4.394.023-6.594.016-1.27.527-2.558 1.484-3.414.801-.605 1.883-.27 2.801-.246-.012-.636-.02-1.27-.023-1.902-1.793-.398-3.336.652-4.242 2.117-.02-.633-.04-1.266-.051-1.894-.656-.024-1.313-.051-1.965-.079zm0 0"/><path d="M58.758 89.223c1.652-.805 4.023-.41 4.945 1.3 1.05 1.887 1.027 4.383-.137 6.211-1.52 2.286-5.527 1.786-6.523-.742-1.008-2.258-.617-5.484 1.715-6.77zm0 0M79.04 92.414c.046-1.574 1.144-3.137 2.726-3.48.976-.164 2.097.007 2.773.793.672.714.813 1.714.98 2.64-2.16.012-4.32-.031-6.48.047zm0 0"/></g></svg>
